src/actions/24/office-chart-area-stacked.svg

<svg xmlns="http://www.w3.org/2000/svg" viewBox="0 0 24 24">
  <defs id="defs3051">
    <style type="text/css" id="current-color-scheme">
      .ColorScheme-Text {
        color:#363636;
      }
      </style>
  </defs>
 <path 
     style="fill:currentColor;fill-opacity:1;stroke:none" 
     d="M 5 4 L 5 10 L 5 11 L 5 16 L 5 17 L 5 18 L 4 18 L 4 19 L 5 19 L 5 20 L 6 20 L 6 19 L 20 19 L 20 18 L 6 18 L 6 17 L 6.0078125 17 L 7 17 L 9 17 L 9 16.992188 L 9.0078125 17 L 11.007812 15 L 12.599609 15 L 14.599609 17 L 18.099609 17 L 20 17 L 20 16 L 18.099609 16 L 15.013672 16 L 13.013672 14 L 13 14 L 12.007812 14 L 11.599609 14 L 10.59375 14 L 8.59375 16 L 7 16 L 6.0078125 16 L 6 16 L 6 13 L 6 12 L 6 11 L 7 11 L 8 11 L 9.8730469 11 L 9.875 11 L 11.875 9 L 12.703125 8.171875 L 13.998047 6.8769531 L 16.121094 9 L 16.126953 8.9960938 L 16.130859 9 L 18.130859 7 L 18.958984 6.171875 L 20 5.1308594 L 19.292969 4.4238281 L 18.251953 5.4648438 L 17.423828 6.2929688 L 16.126953 7.5898438 L 14 5.4648438 L 13.998047 5.4667969 L 13.996094 5.4648438 L 12.46875 6.9921875 L 6 6.9921875 L 6 6 L 6 4 L 5 4 z M 6 7 L 12.460938 7 L 11.996094 7.4648438 L 11.167969 8.2929688 L 9.4609375 10 L 8 10 L 7 10 L 6 10 L 6 7 z "
     class="ColorScheme-Text"
     />
 <path 
     style="fill:currentColor;fill-opacity:0.5;stroke:none" 
     d="M 19.933594 5.0644531 L 20 5.1308594 L 20 5.1269531 L 19.933594 5.0644531 z M 20 5.1308594 L 18.958984 6.171875 L 18.130859 7 L 16.130859 9 L 16.126953 8.9960938 L 16.121094 9 L 13.998047 6.8769531 L 12.703125 8.171875 L 11.875 9 L 9.875 11 L 9.8730469 11 L 8 11 L 7 11 L 6 11 L 6 12 L 6 13 L 6 16 L 6.0078125 16 L 8.59375 16 L 10.59375 14 L 11 14 L 13 13.992188 L 13.007812 14 L 13.013672 14 L 15.005859 15.992188 L 20 16 L 20 5.1308594 z M 11 15 L 9 17 L 6 17 L 6 18 L 20 18 L 20 17 L 14.599609 17 L 12.599609 15 L 11 15 z "
     class="ColorScheme-Text"
     />
</svg>

<svg xmlns="http://www.w3.org/2000/svg" viewBox="0 0 24 24">
    <defs id="defs3051">
        <style id="current-color-scheme" type="text/css">
            .ColorScheme-Text{color:#050505;opacity:.7}
        </style>
    </defs>
    <path d="M5 4v14H4v1h1v1h1v-1h14v-1H6v-1h3v-.008l.008.008 2-2H12.6l2 2H20v-1h-4.986l-2-2h-2.42l-2 2H6v-5h3.875l2-2 .828-.828 1.295-1.295L16.121 9l.006-.004.004.004 2-2 .828-.828L20 5.13l-.707-.707-1.041 1.04-.828.829-1.297 1.297L14 5.465l-.002.002-.002-.002-1.527 1.527H6V4H5zm1 3h6.46l-.464.465-.828.828L9.461 10H6V7z" class="ColorScheme-Text" style="fill:currentColor;fill-opacity:1;stroke:none"/>
    <path d="m19.934 5.064.066.067v-.004l-.066-.063zm.066.067-1.041 1.04-.828.829-2 2-.004-.004-.006.004-2.123-2.123-1.295 1.295-.828.828-2 2H6v5h2.594l2-2H11l2-.008.008.008h.006l1.992 1.992L20 16V5.13zM11 15l-2 2H6v1h14v-1h-5.4l-2-2H11z" class="ColorScheme-Text" style="fill:currentColor;fill-opacity:.5;stroke:none"/>
</svg>
